X: 21361
M: 2/4
L: 1/16
K: D
V: 1 name="1"
d2d2 defd | A2A2 f3e | d2d2 defg | {f}e(^def e2)A2 |\
d2d2 defd | A2A2 f3e | d2d2 cdef | d2f2d2 H|]
cd |\
e2({f}e^d) e2a2 | c2e2A2c2 | B2d2 ^G2B2 | ABA^G ABcd |\
e2({f}e^d) e2a2 | c2e2A2c2 | B2d2 ^G2B2 | A2c2"^D.C."A2 :|


